X:1593
T:Blarney Pilgrim, The
S:Session
R:Jig
O:Ireland
M:6/8
K:DMix
D3 DEG|A3 ABc|BAG AGE|GEA GED|\
D2D DEG|A2G ABc|
BAG AGE|GED D3::\
d2d dBG|AGA BGE|d2d dBG|AGA GBd|
g2e dBG|AGA BGE|B2G AGE|DED D3::\
ADD BDD|ADD ABc|
BAG AGE|GEA GED|\
ADD BDD|ADD ABc|BAG AGE|GED D3:|


